images/two.svg

<svg width="46" height="57" viewBox="0 0 46 57" fill="none" xmlns="http://www.w3.org/2000/svg">
<path d="M3.54625 57V48.6L25.1463 28.2C26.8529 26.6533 28.1063 25.2667 28.9063 24.04C29.7063 22.8133 30.2396 21.6933 30.5063 20.68C30.8263 19.6667 30.9863 18.7333 30.9863 17.88C30.9863 15.64 30.2129 13.9333 28.6663 12.76C27.1729 11.5333 24.9596 10.92 22.0262 10.92C19.6796 10.92 17.4929 11.3733 15.4663 12.28C13.4929 13.1867 11.8129 14.6 10.4263 16.52L0.98625 10.44C3.11958 7.24 6.10625 4.70666 9.94625 2.84C13.7863 0.973331 18.2129 0.039999 23.2263 0.039999C27.3863 0.039999 31.0129 0.733331 34.1063 2.12C37.2529 3.45333 39.6796 5.34667 41.3863 7.8C43.1463 10.2533 44.0263 13.1867 44.0263 16.6C44.0263 18.4133 43.7863 20.2267 43.3063 22.04C42.8796 23.8 41.9729 25.6667 40.5863 27.64C39.2529 29.6133 37.2796 31.8267 34.6663 34.28L16.7463 51.16L14.2663 46.44H45.8663V57H3.54625Z" fill="url(#paint0_linear_86_866)"/>
<defs>
<linearGradient id="paint0_linear_86_866" x1="5.90541" y1="5.5" x2="61.0825" y2="20.3976" gradientUnits="userSpaceOnUse">
<stop stop-color="#00D864"/>
<stop offset="1" stop-color="#007C39"/>
</linearGradient>
</defs>
</svg>

<svg width="46" height="57" fill="none" xmlns="http://www.w3.org/2000/svg"><path d="M3.546 57v-8.4l21.6-20.4c1.707-1.547 2.96-2.933 3.76-4.16.8-1.227 1.334-2.347 1.6-3.36.32-1.013.48-1.947.48-2.8 0-2.24-.773-3.947-2.32-5.12-1.493-1.227-3.706-1.84-6.64-1.84-2.346 0-4.533.453-6.56 1.36-1.973.907-3.653 2.32-5.04 4.24l-9.44-6.08c2.134-3.2 5.12-5.733 8.96-7.6 3.84-1.867 8.267-2.8 13.28-2.8 4.16 0 7.787.693 10.88 2.08 3.147 1.333 5.574 3.227 7.28 5.68 1.76 2.453 2.64 5.387 2.64 8.8 0 1.813-.24 3.627-.72 5.44-.426 1.76-1.333 3.627-2.72 5.6-1.333 1.973-3.306 4.187-5.92 6.64l-17.92 16.88-2.48-4.72h31.6V57H3.546Z" fill="url(#a)"/><defs><linearGradient id="a" x1="5.905" y1="5.5" x2="61.083" y2="20.398" gradientUnits="userSpaceOnUse"><stop stop-color="#00D864"/><stop offset="1" stop-color="#007C39"/></linearGradient></defs></svg>
